icon-svg/skysports-football.svg

<svg xmlns="http://www.w3.org/2000/svg" viewBox="0 0 24 24"><path fill="#44739e" d="M18.039 14.859h-.967v-1.44h-.391v1.714h1.358Zm-2.228-.234.241.508h.423l-.821-1.714h-.415l-.816 1.714h.413l.235-.508Zm-.109-.263h-.523l.188-.4a3 3 0 0 0 .071-.175q.032.085.077.179Zm-1.458-.503a.36.36 0 0 0-.213-.328 1.24 1.24 0 0 0-.646-.125 4 4 0 0 0-.541.035l-.042.006v1.676l.045.005a5 5 0 0 0 .458.02 1.5 1.5 0 0 0 .81-.161.43.43 0 0 0 .213-.364.47.47 0 0 0-.356-.413.41.41 0 0 0 .272-.351m-1.051.243v-.427c.056 0 .125-.008.209-.008.2 0 .447.037.447.214 0 .132-.177.221-.441.221Zm0 .258h.192c.125 0 .534.019.534.261s-.371.264-.53.264q-.12.002-.2-.006Zm-.546-.941h-1.775v.276h.689v1.438h.394v-1.438h.692Zm-2.782-.021c-.648 0-1.1.369-1.1.9 0 .512.438.869 1.067.869.658 0 1.1-.361 1.1-.9 0-.527-.432-.869-1.067-.869m-.017 1.5a.617.617 0 1 1 0-1.228.617.617 0 1 1 0 1.228m-3.4-.608c0 .512.439.869 1.067.869.658 0 1.1-.361 1.1-.9 0-.519-.428-.866-1.067-.866s-1.1.369-1.1.897m1.084.6a.617.617 0 1 1 0-1.228.617.617 0 1 1 0 1.228m-2.587.243h.392v-.731h.856v-.272h-.856v-.437h.926v-.274H4.945Zm10.179-5.997h-.058a.69.69 0 0 0-.688.692v.056a.691.691 0 1 0 1.376 0 .69.69 0 0 0-.63-.748m-2.402.003h-.053a.72.72 0 0 0-.633.382v.729a.71.71 0 0 0 .633.382.69.69 0 0 0 .691-.693v-.054a.69.69 0 0 0-.638-.746m8.989-1.423H9.141a.287.287 0 0 0-.286.283v3.712a.286.286 0 0 0 .284.287h12.576a.287.287 0 0 0 .285-.284V7.999a.29.29 0 0 0-.289-.283m-11.26 3.215a2.5 2.5 0 0 1-.786-.137c-.025-.175.029-.267.132-.267a4 4 0 0 0 .662.1c.346 0 .475-.121.475-.281 0-.114-.05-.215-.361-.3l-.358-.1c-.4-.1-.551-.3-.551-.547 0-.3.24-.571.783-.571a2.3 2.3 0 0 1 .732.125c.033.171-.021.264-.125.264a4 4 0 0 0-.6-.089c-.322 0-.44.11-.44.253 0 .1.047.193.333.275l.365.1c.407.113.572.3.572.571 0 .322-.243.604-.833.604m3.257-1.048a.983.983 0 0 1-.912 1.048h-.059a.86.86 0 0 1-.7-.346v.849c0 .078-.046.131-.182.131a.6.6 0 0 1-.164-.018V8.873a1 1 0 0 1 .164-.018c.136 0 .182.049.182.132v.192a.85.85 0 0 1 .7-.346.984.984 0 0 1 .973 1Zm1.41 1.05h-.053a1.05 1.05 0 1 1 1.041-1.059v.008a1.02 1.02 0 0 1-.988 1.051m2.453-1.742a.72.72 0 0 0-.685.449v1.139c0 .085-.046.131-.186.131a.6.6 0 0 1-.161-.018V8.873a1 1 0 0 1 .161-.018c.139 0 .186.049.186.132v.281a.855.855 0 0 1 .871-.4 1 1 0 0 1 .018.155c0 .138-.058.168-.204.168m1.129 1.741a.583.583 0 0 1-.638-.522.5.5 0 0 1 0-.106V8.567c0-.089.05-.146.186-.146a1 1 0 0 1 .161.021v.439h.791a1 1 0 0 1 .015.139c0 .121-.05.164-.125.164h-.671v1.1q0 .352.332.35a2.5 2.5 0 0 0 .411-.089c.1 0 .148.084.126.252a1.3 1.3 0 0 1-.588.135m1.644 0h-.005a2.4 2.4 0 0 1-.785-.137c-.025-.175.028-.267.132-.267a4 4 0 0 0 .66.1c.346 0 .475-.121.475-.281 0-.114-.05-.215-.361-.3l-.357-.1c-.4-.1-.55-.3-.55-.547 0-.3.239-.571.782-.571a2.3 2.3 0 0 1 .731.125c.033.171-.021.264-.125.264a4 4 0 0 0-.6-.089c-.321 0-.439.11-.439.253 0 .1.047.193.333.275l.364.1c.406.113.571.3.571.571.006.321-.237.603-.826.603Zm-17.752-.879.465.089c.17.033.257.071.257.163 0 .071-.066.145-.284.145-.2 0-.465-.03-.635-.03s-.337.073-.337.394a1 1 0 0 0 .015.128 6 6 0 0 0 1.111.034c.489-.053.73-.32.73-.688 0-.317-.2-.577-.652-.66l-.443-.082c-.142-.025-.231-.057-.231-.138s.094-.138.32-.138.417.023.542.023c.163 0 .333-.069.333-.39a.6.6 0 0 0-.013-.123 5 5 0 0 0-1.047-.034c-.479.053-.723.34-.723.683a.66.66 0 0 0 .592.624m2.119.63v-2.7a.7.7 0 0 0-.145-.015c-.388 0-.456.207-.456.406v2.614a1 1 0 0 0 .138.01c.386-.005.463-.119.463-.315m1.117.316a.9.9 0 0 0 .343-.065l-.719-1.079.509-.539.839 1.308-.51 1.068a.7.7 0 0 0 .285.061.41.41 0 0 0 .437-.281l1.199-2.673a.7.7 0 0 0-.249-.058.48.48 0 0 0-.494.344l-.389.914-.763-1.236a1 1 0 0 0-.258-.036.7.7 0 0 0-.576.272l-.742.809.6.937a.53.53 0 0 0 .488.254m16.086 4.999a.2.2 0 0 1-.2.2H2.285a.2.2 0 0 1-.2-.2v-3.53a.28.28 0 0 1-.085-.2v3.73a.286.286 0 0 0 .285.286h19.43a.286.286 0 0 0 .285-.286v-3.734a.28.28 0 0 1-.086.2Zm-2.288-1.139h-.967v-1.44h-.391v1.714h1.358Z"/></svg>

<?xml version="1.0" encoding="UTF-8"?>
<svg width="24px" fill="#44739e" height="24px" viewBox="0 0 24 24" version="1.1" xmlns="http://www.w3.org/2000/svg" xmlns:xlink="http://www.w3.org/1999/xlink">
            <path d="m 18.039,14.861 h -0.967 v -1.44 h -0.391 v 1.714 h 1.358 z m -2.228,-0.234 0.241,0.508 h 0.423 l -0.821,-1.714 h -0.415 l -0.816,1.714 h 0.413 l 0.235,-0.508 z m -0.109,-0.263 h -0.523 l 0.188,-0.4 c 0.025,-0.056 0.048,-0.112 0.071,-0.175 0.022,0.057 0.046,0.116 0.077,0.179 z m -1.458,-0.503 a 0.359,0.359 0 0 0 -0.213,-0.328 1.244,1.244 0 0 0 -0.646,-0.125 3.835,3.835 0 0 0 -0.541,0.035 l -0.042,0.006 v 1.676 l 0.045,0.005 a 4.448,4.448 0 0 0 0.458,0.02 1.5,1.5 0 0 0 0.81,-0.161 0.432,0.432 0 0 0 0.213,-0.364 0.467,0.467 0 0 0 -0.356,-0.413 0.409,0.409 0 0 0 0.272,-0.351 z m -1.051,0.243 v -0.427 c 0.056,0 0.125,-0.008 0.209,-0.008 0.2,0 0.447,0.037 0.447,0.214 0,0.132 -0.177,0.221 -0.441,0.221 z m 0,0.258 h 0.192 c 0.125,0 0.534,0.019 0.534,0.261 0,0.242 -0.371,0.264 -0.53,0.264 -0.08,0 -0.146,0 -0.2,-0.006 z m -0.546,-0.941 h -1.775 v 0.276 h 0.689 v 1.438 h 0.394 v -1.438 h 0.692 z M 9.865,13.4 c -0.648,0 -1.1,0.369 -1.1,0.9 0,0.512 0.438,0.869 1.067,0.869 0.658,0 1.1,-0.361 1.1,-0.9 0,-0.527 -0.432,-0.869 -1.067,-0.869 z m -0.017,1.5 a 0.617,0.617 0 1 1 0,-1.228 0.617,0.617 0 1 1 0,1.228 z m -3.4,-0.608 c 0,0.512 0.439,0.869 1.067,0.869 0.658,0 1.1,-0.361 1.1,-0.9 0,-0.519 -0.428,-0.866 -1.067,-0.866 -0.639,0 -1.1,0.369 -1.1,0.897 z m 1.084,0.6 a 0.617,0.617 0 1 1 0,-1.228 0.617,0.617 0 1 1 0,1.228 z M 4.945,15.135 H 5.337 V 14.404 H 6.193 V 14.132 H 5.337 V 13.695 H 6.263 V 13.421 H 4.945 Z M 15.124,9.1369999 h -0.058 a 0.689,0.689 0 0 0 -0.688,0.6919998 0.533,0.533 0 0 0 0,0.056 0.691,0.691 0 1 0 1.376,0 0.692,0.692 0 0 0 -0.63,-0.7479998 z m -2.402,0.003 H 12.669 A 0.721,0.721 0 0 0 12.036,9.5219997 V 10.251 a 0.71,0.71 0 0 0 0.633,0.382 0.692,0.692 0 0 0 0.691,-0.6930003 c 0,-0.018 0,-0.036 0,-0.054 A 0.692,0.692 0 0 0 12.722,9.1399999 Z m 8.989,-1.423 H 9.141 a 0.287,0.287 0 0 0 -0.286,0.283 V 11.712 A 0.286,0.286 0 0 0 9.139,12 H 21.715 A 0.287,0.287 0 0 0 22,11.715 V 7.9999999 a 0.292,0.292 0 0 0 -0.289,-0.283 z M 10.451,10.932 A 2.447,2.447 0 0 1 9.665,10.795 C 9.64,10.62 9.694,10.528 9.797,10.528 a 3.891,3.891 0 0 0 0.662,0.1 c 0.346,0 0.475,-0.121 0.475,-0.281 0,-0.114 -0.05,-0.215 -0.361,-0.3 L 10.215,9.9469997 c -0.4,-0.1 -0.551,-0.3 -0.551,-0.547 0,-0.2999998 0.24,-0.5709998 0.783,-0.5709998 a 2.311,2.311 0 0 1 0.732,0.125 c 0.033,0.171 -0.021,0.2639998 -0.125,0.2639998 a 3.912,3.912 0 0 0 -0.6,-0.089 c -0.322,0 -0.44,0.1099999 -0.44,0.2529999 0,0.1 0.047,0.193 0.333,0.275 l 0.365,0.1 c 0.407,0.113 0.572,0.3000004 0.572,0.5710004 0,0.322 -0.243,0.604 -0.833,0.604 z M 13.708,9.8839997 A 0.983,0.983 0 0 1 12.796,10.932 h -0.059 v 0 a 0.861,0.861 0 0 1 -0.7,-0.346 v 0.849 c 0,0.078 -0.046,0.131 -0.182,0.131 A 0.57,0.57 0 0 1 11.691,11.548 V 8.8739999 a 0.756,0.756 0 0 1 0.164,-0.018 c 0.136,0 0.182,0.049 0.182,0.132 v 0.192 a 0.853,0.853 0 0 1 0.7,-0.346 0.984,0.984 0 0 1 0.973,0.9999998 c 0,0.013 -0.001,0.032 -0.002,0.05 z M 15.118,10.934 h -0.053 v 0 a 1.05,1.05 0 1 1 1.041,-1.0590003 v 0.008 A 1.021,1.021 0 0 1 15.118,10.934 Z m 2.453,-1.7420003 v 0 a 0.722,0.722 0 0 0 -0.685,0.449 V 10.78 c 0,0.085 -0.046,0.131 -0.186,0.131 A 0.626,0.626 0 0 1 16.539,10.893 V 8.8739999 a 0.872,0.872 0 0 1 0.161,-0.018 c 0.139,0 0.186,0.049 0.186,0.132 v 0.2809998 a 0.855,0.855 0 0 1 0.871,-0.3999998 1.008,1.008 0 0 1 0.018,0.155 c 0,0.138 -0.058,0.1679998 -0.204,0.1679998 z M 18.7,10.933 a 0.583,0.583 0 0 1 -0.638,-0.522 0.536,0.536 0 0 1 0,-0.106 V 8.5679999 c 0,-0.089 0.05,-0.146 0.186,-0.146 a 0.877,0.877 0 0 1 0.161,0.021 v 0.439 H 19.2 a 1.074,1.074 0 0 1 0.015,0.139 c 0,0.121 -0.05,0.164 -0.125,0.164 H 18.419 V 10.285 c 0,0.236 0.111,0.35 0.332,0.35 a 2.509,2.509 0 0 0 0.411,-0.089 c 0.1,0 0.148,0.084 0.126,0.252 A 1.33,1.33 0 0 1 18.7,10.933 Z m 1.644,0 h -0.005 a 2.414,2.414 0 0 1 -0.785,-0.137 c -0.025,-0.175 0.028,-0.267 0.132,-0.267 a 3.883,3.883 0 0 0 0.66,0.1 c 0.346,0 0.475,-0.121 0.475,-0.281 0,-0.114 -0.05,-0.215 -0.361,-0.3 L 20.103,9.9479997 c -0.4,-0.1 -0.55,-0.3 -0.55,-0.547 0,-0.2999998 0.239,-0.5709998 0.782,-0.5709998 a 2.3,2.3 0 0 1 0.731,0.125 c 0.033,0.171 -0.021,0.2639998 -0.125,0.2639998 a 3.912,3.912 0 0 0 -0.6,-0.089 c -0.321,0 -0.439,0.1099999 -0.439,0.2529999 0,0.1 0.047,0.193 0.333,0.275 l 0.364,0.1 c 0.406,0.113 0.571,0.3000004 0.571,0.5710004 0.006,0.321 -0.237,0.603 -0.826,0.603 z M 2.592,10.054 3.057,10.143 c 0.17,0.033 0.257,0.071 0.257,0.163 0,0.071 -0.066,0.145 -0.284,0.145 -0.2,0 -0.465,-0.03 -0.635,-0.03 -0.17,0 -0.337,0.073 -0.337,0.394 a 0.688,0.688 0 0 0 0.015,0.128 5.976,5.976 0 0 0 1.111,0.034 c 0.489,-0.053 0.73,-0.32 0.73,-0.688 0,-0.3170003 -0.2,-0.5770003 -0.652,-0.6600003 l -0.443,-0.082 c -0.142,-0.025 -0.231,-0.057 -0.231,-0.138 0,-0.081 0.094,-0.138 0.32,-0.138 0.226,0 0.417,0.023 0.542,0.023 0.163,0 0.333,-0.069 0.333,-0.3899998 a 0.565,0.565 0 0 0 -0.013,-0.123 5.023,5.023 0 0 0 -1.047,-0.034 C 2.244,8.7999999 2,9.0869999 2,9.4299997 A 0.657,0.657 0 0 0 2.592,10.054 Z m 2.119,0.63 V 7.9839999 a 0.707,0.707 0 0 0 -0.145,-0.015 c -0.388,0 -0.456,0.207 -0.456,0.406 V 10.989 a 1.067,1.067 0 0 0 0.138,0.01 C 4.634,10.994 4.711,10.88 4.711,10.684 Z M 5.828,11 A 0.894,0.894 0 0 0 6.171,10.935 L 5.452,9.8559997 5.961,9.3169997 6.8,10.625 6.29,11.693 a 0.7,0.7 0 0 0 0.285,0.061 0.412,0.412 0 0 0 0.437,-0.281 L 8.211,8.7999999 a 0.667,0.667 0 0 0 -0.249,-0.058 0.477,0.477 0 0 0 -0.494,0.344 L 7.079,9.9999997 6.316,8.7639999 a 1.122,1.122 0 0 0 -0.258,-0.036 0.7,0.7 0 0 0 -0.576,0.272 L 4.74,9.8089997 5.34,10.746 A 0.531,0.531 0 0 0 5.828,11 Z m 16.086,5 a 0.2,0.2 0 0 1 -0.2,0.2 H 2.285 A 0.2,0.2 0 0 1 2.085,16 V 12.47 A 0.282,0.282 0 0 1 2,12.27 V 16 a 0.286,0.286 0 0 0 0.285,0.286 h 19.43 A 0.286,0.286 0 0 0 22,16 v -3.734 a 0.285,0.285 0 0 1 -0.086,0.2 z m -2.288,-1.139 h -0.967 v -1.44 h -0.391 v 1.714 h 1.358 z"/>

</svg>
